X: 20863
T: Jolly Joker, The
R: jig
M: 6/8
K: Dmajor
|:Ddd dFG|ABG FGE|Ddd dFA|GBA GFE|
Ddd Fdd|Edd Ddd|fdB AGF|EBA GFE:|
|:FEF D2D|DFA AGE|FEF D2D|fdB Bcd|
FEF D2D|DFA AGF|GBG FAF|EBA GFE:|

